incomeartour/img/icons/new.svg

<svg width="35" height="11" viewBox="0 0 35 11" fill="none" xmlns="http://www.w3.org/2000/svg">
<g opacity="0.9">
<path d="M3.16543 5.05534V10.8561H0.822266V0.711914H2.67965L7.38026 6.68412V0.711914H9.72342V10.8561H7.80889L3.16543 5.05534Z" fill="black"/>
<path d="M18.793 8.79868V10.8561H11.6635V0.711914H18.6644V2.76932H14.0067V4.74101H18.0072V6.64126H14.0067V8.79868H18.793Z" fill="black"/>
<path d="M23.5598 0.726202H25.7172L26.7745 3.96948L27.8318 0.726202H30.0035L28.2747 5.4411L29.3034 8.14145L31.8466 0.711914H34.4041L30.4464 10.8561H28.4176L26.7745 6.88415L25.1457 10.8561H23.1026L19.1593 0.711914H21.7024L24.2599 8.14145L25.26 5.4411L23.5598 0.726202Z" fill="black"/>
</g>
</svg>

<svg width="35" height="11" fill="none" xmlns="http://www.w3.org/2000/svg"><path d="M3.165 5.055v5.801H.822V.712H2.68l4.7 5.972V.712h2.343v10.144H7.81l-4.644-5.8zm15.628 3.744v2.057h-7.13V.712h7.001v2.057h-4.657v1.972h4v1.9h-4V8.8h4.786zM23.56.726h2.157l1.058 3.243L27.831.726h2.171l-1.728 4.715 1.028 2.7 2.544-7.43h2.557l-3.958 10.145h-2.028l-1.643-3.972-1.63 3.972h-2.042L19.159.712h2.543l2.558 7.43 1-2.7-1.7-4.716z" opacity=".9" fill="#000"/></svg>
